X:93
T:The Burnt Old Man
M:6/8
L:1/8
K:G
"G"GBe dBG|BcB B2 A|GBe dBG|"D"ABA AGE|
"G"GBe dBA|GBd "Em"g2 a|bag "C"ege|"D"dBA AGE:|
|:"G"g2 g gab|ded dBd|"D"a2 a aga|"G"bge "Em"edB|
"G"g3 gab|dBd "Em"g2 a|bag "C"ege|"D"dBA AGE:|
